public/images/icon/icon-04.svg

<svg width="36" height="36" viewBox="0 0 36 36" fill="none" xmlns="http://www.w3.org/2000/svg">
<g clip-path="url(#clip0_14_79)">
<path d="M18 3C26.2845 3 33 9.7155 33 18C33 26.2845 26.2845 33 18 33C9.7155 33 3 26.2845 3 18C3 9.7155 9.7155 3 18 3ZM18 6C11.373 6 6 11.373 6 18C6 24.627 11.373 30 18 30C24.627 30 30 24.627 30 18C30 11.373 24.627 6 18 6ZM24.363 9.5145L26.4855 11.6355L20.8995 17.2245C20.9655 17.472 21 17.7315 21 18C21 19.6575 19.6575 21 18 21C16.3425 21 15 19.6575 15 18C15 16.3425 16.3425 15 18 15C18.2685 15 18.528 15.0345 18.7755 15.1005L24.3645 9.5145H24.363Z" fill="white"/>
<path opacity="0.5" d="M18 7.5C19.527 7.5 20.9775 7.8255 22.287 8.412L19.9425 10.755C19.323 10.59 18.672 10.5 18 10.5C13.8585 10.5 10.5 13.8585 10.5 18C10.5 20.07 11.34 21.945 12.696 23.304L10.575 25.425L10.341 25.1835C8.57997 23.3055 7.49997 20.778 7.49997 18C7.49997 12.201 12.201 7.5 18 7.5ZM27.588 13.7145C28.173 15.0225 28.5 16.4745 28.5 18C28.5 20.8995 27.324 23.5245 25.425 25.425L23.304 23.304C24.66 21.945 25.5 20.07 25.5 18C25.5 17.328 25.4115 16.677 25.245 16.0575L27.588 13.7145Z" fill="white"/>
</g>
<defs>
<clipPath id="clip0_14_79">
<rect width="36" height="36" fill="white"/>
</clipPath>
</defs>
</svg>

<svg xmlns="http://www.w3.org/2000/svg" width="36" height="36" fill="none"><g fill="#fff" clip-path="url(#a)"><path d="M18 3c8.285 0 15 6.716 15 15 0 8.285-6.715 15-15 15S3 26.285 3 18 9.716 3 18 3m0 3C11.373 6 6 11.373 6 18s5.373 12 12 12 12-5.373 12-12S24.627 6 18 6m6.363 3.515 2.122 2.12-5.585 5.59q.1.371.1.775a3 3 0 1 1-6 0 3 3 0 0 1 3.776-2.9l5.589-5.585z"/><path d="M18 7.5c1.527 0 2.977.325 4.287.912l-2.344 2.343a7.5 7.5 0 0 0-7.246 12.549l-2.122 2.121-.234-.242A10.47 10.47 0 0 1 7.5 18c0-5.799 4.701-10.5 10.5-10.5m9.588 6.214c.585 1.309.912 2.76.912 4.286 0 2.9-1.176 5.525-3.075 7.425l-2.121-2.121A7.5 7.5 0 0 0 25.5 18c0-.672-.088-1.323-.255-1.942z" opacity=".5"/></g><defs><clipPath id="a"><path fill="#fff" d="M0 0h36v36H0z"/></clipPath></defs></svg>
